!!!!SEGMENT: pl-wn--sd-xvi-o-266_bazylik-cyprian--kancjonal-zamoyskich-piesn-nowa-krzescianska-it-to-juz-jest-nie-tajno-kazdemu.krn
!!!cenid: 15xx:822
!!!COM: Bazylik, Cyprian
!!!COM-rismID:
!!!CDT: ~1535-~1600
!!!CNT: Polish
!!!GTL: Kancjonał Zamoyskich
!!!OTL: Pieśń nowa krześciańska/It to już jest nie tajno każdemu
!!!PDT: 1558
!!!AGN:
!!!SMS-siglum: PL-Wn
!!!SMS-shelfmark: SD XVI.O.266
!!!SMS-shelfwork: G
!!!SMS-variant:
!!!SMS-altvar:
!!!NIFC-rismSourceID: 990004242
!!!NIFC-islandoraID:
!!!URL-pdf-islandora:
!!!URL-scan: https://polona.pl/item/piesn-nowa-krzescianska-jako-mamy-ssukac-laski-panskiey-gdy-ia-prze-grzech-vtraciemy,MTE3MTQ0Mg/3/#info:metadata @EN{Scan on Polona} @PL{Skany w portalu Polona}
!!!ONB-nifc: UWAGA: proszę zapisywać tylko teksty występujące bezpośrednio pod nutami
!!!AIN: 1 alto 1 bass 1 soprn 1 tenor
!!!key: d:aeo
**kern	**text	**mod-text	**kern	**text	**mod-text	**kern	**text	**mod-text	**kern	**text	**mod-text
*part4	*part4	*part4	*part3	*part3	*part3	*part2	*part2	*part2	*part1	*part1	*part1
*staff4	*staff4	*staff4	*staff3	*staff3	*staff3	*staff2	*staff2	*staff2	*staff1	*staff1	*staff1
*I"BASVS.	*	*	*I"TENOR	*	*	*I"ALT.	*	*	*I"CANTVS.	*	*
*mI"Basso	*	*	*mI"Tenore	*	*	*mI"Alto	*	*	*mI"Soprano	*	*
*I'B	*	*	*I'T	*	*	*I'A	*	*	*I'S	*	*
*Ibass	*	*	*Itenor	*	*	*Ialto	*	*	*Isoprn	*	*
*ICvox	*	*	*ICvox	*	*	*ICvox	*	*	*ICvox	*	*
*clefF4	*	*	*clefC4	*	*	*clefC3	*	*	*clefC1	*	*
*	*	*	*mclefGv2	*	*	*mclefG2	*	*	*mclefG2	*	*
*k[b-]	*	*	*k[b-]	*	*	*k[b-]	*	*	*k[b-]	*	*
*d:aeo	*	*	*d:aeo	*	*	*d:aeo	*	*	*d:aeo	*	*
*M2/1	*	*	*M2/1	*	*	*M2/1	*	*	*M2/1	*	*
*met(C|)	*	*	*met(C|)	*	*	*met(C|)	*	*	*met(C|)	*	*
*mmet(c|)	*	*	*mmet(c|)	*	*	*mmet(c|)	*	*	*mmet(c|)	*	*
=1-	=1-	=1-	=1-	=1-	=1-	=1-	=1-	=1-	=1-	=1-	=1-
!LO:TX:t=P:problem:znak BB- po metrum; błędnie C- zamiast BB-	!	!	!LO:TX:t=P:problem:znak B- po metrum	!	!	!	!	!	!LO:TX:t=P:problem:znak b- po metrum	!	!
2D/	Iſz	Iż	1d	Iſz	Iż	2f\	Iſz	Iż	2a\	Iſz	Iż
1G	to	to	.	.	.	1g	to	to	1b-	to	to
.	.	.	1d	to	to	.	.	.	.	.	.
2D/	iuſz	już	.	.	.	2f\	iuſz	już	2a\	iuſz	już
=2-	=2-	=2-	=2-	=2-	=2-	=2-	=2-	=2-	=2-	=2-	=2-
1G	nie	jest	1d	iuſz	już	1g	.	jest	1b-	.	jest
1C	.	nie-	1e	ieſt	jest	1g	ieſt	nie-	1cc	.	nie-
=3-	=3-	=3-	=3-	=3-	=3-	=3-	=3-	=3-	=3-	=3-	=3-
2.F\	táy-	-taj-	1f	.	nie-	2.a\	.	-taj-	2a\	ieſt	-taj-
.	.	.	.	.	.	.	.	.	1cc	.	.
!	!	!	!	!	!	!LO:SIC:s=8gL	!	!	!	!	!
4G\	.	.	.	.	.	8g\	.	.	.	.	.
!	!	!	!	!	!	!LO:SIC:s=8fJ	!	!	!	!	!
.	.	.	.	.	.	8f\	.	.	.	.	.
1A	-no	-no	1c	nie	-taj-	1e	nie	.	.	.	.
.	.	.	.	.	.	.	.	.	4b-\	.	.
.	.	.	.	.	.	.	.	.	4a\	nie	.
=4-	=4-	=4-	=4-	=4-	=4-	=4-	=4-	=4-	=4-	=4-	=4-
1D	káż-	każ-	1d	táy-	-no	1f	.	-no	2b-\	.	-no
.	.	.	.	.	.	.	.	.	2a\	táy-	.
1F	.	.	1c	.	każ-	1f	táy-	każ-	2f/	.	każ-
.	.	.	.	.	.	.	.	.	1a\	-no	.
=5-	=5-	=5-	=5-	=5-	=5-	=5-	=5-	=5-	=5-	=5-	=5-
!	!	!	!	!	!	!LO:SIC:s=[0d	!	!	!	!	!
0G	.	-de-	0B-	-no	-de-	0d	.	-de-	.	.	.
.	.	.	.	.	.	.	.	.	4g/	káż-	.
.	.	.	.	.	.	.	.	.	4f/	.	.
.	.	.	.	.	.	.	.	.	1g	-de-	-de-
*	*	*	*	*	*	*	*	*	*custos:a	*	*
=6-	=6-	=6-	=6-	=6-	=6-	=6-	=6-	=6-	=6-	=6-	=6-
!	!	!	!	!	!	!LO:SIC:s=2d]	!	!	!LO:LB:g=original	!	!
2D/	-de-	-mu	0A	káż-	-mu	2d\	-no	.	2a\	.	-mu
1F	.	ja-	.	.	.	1c	.	-mu	1a	-mu	ja-
2E\	-mu/	.	.	.	.	2c/	káż-	ja-	2g\	iá-	.
*custos:D	*	*	*	*	*	*	*	*	*	*	*
=7-	=7-	=7-	=7-	=7-	=7-	=7-	=7-	=7-	=7-	=7-	=7-
!LO:LB:g=original	!	!	!	!	!	!	!	!	!	!	!
2D/	iá-	.	1A	-de-	ja-	1d	-de-	.	2f/	-ką	.
4C/	-ką	.	.	.	.	.	.	.	4e/	.	.
4BB-/	mi-	.	.	.	.	.	.	.	4d/	.	.
*	*	*	*custos:A	*	*	*custos:c	*	*	*	*	*
!	!	!	!LO:LB:g=original	!	!	!LO:LB:g=original	!	!	!	!	!
1AA	-łoſć	-ką	1A	-mu	-ką	1c	-mu	-ką	2e/	mi-	.
.	.	.	.	.	.	.	.	.	4cc\	-łoſc	-ką
.	.	.	.	.	.	.	.	.	4b-\	.	.
=8-	=8-	=8-	=8-	=8-	=8-	=8-	=8-	=8-	=8-	=8-	=8-
1D	.	mi-	1A	iá-	mi-	2.d\	iá-	mi-	4a\	.	mi-
.	.	.	.	.	.	.	.	.	4g/	.	.
.	.	.	.	.	.	.	.	.	2f/	.	.
.	.	.	.	.	.	4e\	-ką	.	.	.	.
1BB-	człe-	-łość	1d	-ką	-łość	1f	.	-łość	1b-	czło-	-łość
=9-	=9-	=9-	=9-	=9-	=9-	=9-	=9-	=9-	=9-	=9-	=9-
1.F	.	czło-	1.c	mi-	czło-	1.f	mi-	czło-	1.a	.	czło-
2G\	-ku	-wie-	2B-\	-łoſc	-wie-	1d\	-łoſc	-wie-	2g/	-wie-	-wie-
=10-	=10-	=10-	=10-	=10-	=10-	=10-	=10-	=10-	=10-	=10-	=10-
2D/	.	-ku	1A	czło-	-ku	.	.	.	2f/	.	-ku
2F\	.	.	.	.	.	2c/	.	.	2a\	-ko-	.
1BB-	nędz-	nę-	1B-	.	nę-	1d	.	-ku	2g/	-wi	.
*	*	*	*	*	*	*	*	*	*custos:f	*	*
!	!	!	!	!	!	!	!	!	!LO:LB:g=original	!	!
.	.	.	.	.	.	.	.	.	1f/	nędz-	nę-
=11-	=11-	=11-	=11-	=11-	=11-	=11-	=11-	=11-	=11-	=11-	=11-
0C	.	-dzne-	0G	-wie-	-dzne-	0c	czło-	nę-	.	.	.
.	.	.	.	.	.	.	.	.	4e/	-ne-	.
.	.	.	.	.	.	.	.	.	4d/	.	.
.	.	.	.	.	.	.	.	.	1e	.	-dzne-
=12-	=12-	=12-	=12-	=12-	=12-	=12-	=12-	=12-	=12-	=12-	=12-
2D/	.	-mu	0F	.	-mu	2A/	-wie-	-dzne-	2f/	-mu	-mu
2.BB-/	-ne-	ra-	.	.	.	1B-	-ku	.	2.d/	.	ra-
4C/	.	.	.	.	.	.	.	.	4e/	.	.
2D/	-mu/	.	.	.	.	4A/	.	.	2f/	ra-	.
.	.	.	.	.	.	4B-/	.	.	.	.	.
*custos:AA	*	*	*	*	*	*	*	*	*	*	*
=13-	=13-	=13-	=13-	=13-	=13-	=13-	=13-	=13-	=13-	=13-	=13-
!LO:LB:g=original	!	!	!	!	!	!	!	!	!	!	!
2AA/	ra-	.	1A	-ku	ra-	1c	káż-	-mu	2e/	.	.
1FF	-czył	-czył	.	.	.	.	.	.	2.f/	-czył	.
.	.	.	1A	nę/-	-czył	2.c/	-(de-	ra-	.	.	.
.	.	.	.	.	.	.	.	.	4g/	.	.
1F\	pan	Pan	.	.	.	.	.	.	1a\	.	.
.	.	.	.	.	.	4d\	-mu)	.	.	.	.
*	*	*	*custos:c	*	*	*custos:e	*	*	*	*	*
=14-	=14-	=14-	=14-	=14-	=14-	=14-	=14-	=14-	=14-	=14-	=14-
!	!	!	!LO:LB:g=original	!	!	!LO:LB:g=original	!	!	!	!	!
.	.	.	1c	-dzne-	Pan	1.e	ra-	.	.	.	.
4E\	.	.	.	.	.	.	.	.	4g/	pan	.
4D\	.	.	.	.	.	.	.	.	4f/	.	.
2C/	bog	.	1c	-mu/	Bóg	.	.	.	2g/	.	-czył
2F\	.	.	.	.	.	4f\	-cził	.	2a\	.	.
.	.	.	.	.	.	4g\	.	.	.	.	.
=15-	=15-	=15-	=15-	=15-	=15-	=15-	=15-	=15-	=15-	=15-	=15-
2D/	.	.	1d	ra-	z_mi-	2a\	pa(n)	.	2f/	Bog	Pan
*	*	*	*	*	*	*	*	*	*custos:b	*	*
!	!	!	!	!	!	!	!	!	!LO:LB:g=original	!	!
2.G\	z mi-	Bóg	.	.	.	1g	.	.	1b-	z mi-	.
.	.	.	1d	-czył	-ło-	.	.	.	.	.	.
4A\	-ło-	.	.	.	.	.	.	.	.	.	.
2B-\	.	.	.	.	.	2d\	bog	.	2g/	-ło-	.
=16-	=16-	=16-	=16-	=16-	=16-	=16-	=16-	=16-	=16-	=16-	=16-
1A	.	z_mi-	1c	.	-sier-	1e	.	.	2a\	.	Bóg
.	.	.	.	.	.	.	.	.	2cc\	-ſier-	z_mi-
1D	-ſier-	-ło-	1d	.	-dzia	1f	.	-czył	2b-\	.	.
.	.	.	.	.	.	.	.	.	1a\	-dzia	-ło-
=17-	=17-	=17-	=17-	=17-	=17-	=17-	=17-	=17-	=17-	=17-	=17-
0G	-dziá	-sier-	0B-	pan	swe-	1.d	z mi-	Pan	.	.	.
.	.	.	.	.	.	.	.	.	4g/	.	.
.	.	.	.	.	.	.	.	.	4f/	.	.
.	.	.	.	.	.	.	.	.	1g	ſwe-	-sier-
.	.	.	.	.	.	2e\	-ło-	.	.	.	.
=18-	=18-	=18-	=18-	=18-	=18-	=18-	=18-	=18-	=18-	=18-	=18-
2.F\	ſ(we	-dzia	0A	.	-go	2f\	-(sier-	Bóg	2.a\	.	-dzia
.	.	.	.	.	.	1f	-dzia)	z_mi-	.	.	.
4E\	go)	.	.	.	.	.	.	.	4g\	.	.
*custos:D	*	*	*	*	*	*	*	*	*	*	*
!LO:LB:g=original	!	!	!	!	!	!	!	!	!	!	!
2D/	o-	.	.	.	.	.	.	.	2f/	-go	.
2C/	-ká-	swe-	.	.	.	2c/	.	-ło-	2.e/	o-	swe-
=19-	=19-	=19-	=19-	=19-	=19-	=19-	=19-	=19-	=19-	=19-	=19-
1D	-zo-	-go	1A	bog	o-	2.f\	o-	-sier-	.	.	.
.	.	.	.	.	.	.	.	.	4d/	-ká-	.
.	.	.	.	.	.	.	.	.	2d/	-zo-	-go
!	!	!	!	!	!	!LO:SIC:s=8eL	!	!	!	!	!
.	.	.	.	.	.	8e\	-ká-	.	.	.	.
!	!	!	!	!	!	!LO:SIC:s=8dJ	!	!	!	!	!
.	.	.	.	.	.	8d\	-zo-	.	.	.	.
2AA/	-wáć	o-	1A	z mi-	-ka-	2c/	-wáć	-dzia	2e/	.	o-
*	*	*	*	*	*	*custos:d	*	*	*	*	*
!	!	!	!	!	!	!LO:LB:g=original	!	!	!	!	!
2D/	.	-ka-	.	.	.	2d\	bes	.	2f/	-wáć	.
*	*	*	*	*	*	*	*	*	*custos:g	*	*
=20-	=20-	=20-	=20-	=20-	=20-	=20-	=20-	=20-	=20-	=20-	=20-
!	!	!	!	!	!	!	!	!	!LO:LB:g=original	!	!
1GG	bes	-zo-	1G	-ło	-zo-	2.B-/	.	swe-	2g/	bes	.
.	.	.	.	.	.	.	.	.	1b-	wſſech	.
.	.	.	.	.	.	4c/	wſſech	.	.	.	.
*	*	*	*custos:F	*	*	*	*	*	*	*	*
!	!	!	!LO:LB:g=original	!	!	!	!	!	!	!	!
1D	.	.	1F	o-	-wać	1.d	.	-go	.	.	.
.	.	.	.	.	.	.	.	.	1a\	.	-ka-
=21-	=21-	=21-	=21-	=21-	=21-	=21-	=21-	=21-	=21-	=21-	=21-
2GG/	wſſech	-wać	1B-	-ká-	bez	.	.	.	.	.	.
2G\	.	bez	.	.	.	2d\	.	o-	1g	.	-zo-
2D/	.	wszech	1A	-zo-	wszech	2d\	.	-ka-	.	.	.
2F\	.	.	.	.	.	1c\	za-	-zo-	1f/	.	-wać
=22-	=22-	=22-	=22-	=22-	=22-	=22-	=22-	=22-	=22-	=22-	=22-
*lig	*	*	*	*	*	*	*	*	*	*	*
1C	.	za-	1G	-wáć	za-	.	.	.	.	.	.
.	.	.	.	.	.	2c/	.	-wać	2e/	.	bez
1D	.	.	1F	bes	-sług	1A	.	bez	2f/	.	wszech
.	.	.	.	.	.	.	.	.	1d/	za-	za-
*Xlig	*	*	*	*	*	*	*	*	*	*	*
=23-	=23-	=23-	=23-	=23-	=23-	=23-	=23-	=23-	=23-	=23-	=23-
0AA	zá-	-sług	0E	.	je-	0A	-ſług	wszech	.	.	.
.	.	.	.	.	.	.	.	.	4c/	-ſług	.
.	.	.	.	.	.	.	.	.	4B-/	.	.
.	.	.	.	.	.	.	.	.	1c	.	.
=24-	=24-	=24-	=24-	=24-	=24-	=24-	=24-	=24-	=24-	=24-	=24-
1.BB-	-ſług	je-	[0Dl/	wſſech zaſlug ie(go)	-go.	1F	.	za-	0d	.	-sług
.	.	.	.	.	.	2G/	ie-	-sług	.	.	.
2AA/	.	.	.	.	.	2A/	.	.	.	.	.
=25-	=25-	=25-	=25-	=25-	=25-	=25-	=25-	=25-	=25-	=25-	=25-
0GG	ie-	.	0D_	.	.	0B-	-go.	je-	0g	ie-	je-
=26-	=26-	=26-	=26-	=26-	=26-	=26-	=26-	=26-	=26-	=26-	=26-
!	!	!	!	!	!	!LO:SIC:s=0A;	!	!	!	!	!
!LO:SIC:s=0DD;	!	!	!LO:SIC:s=0D;]	!	!	!LO:TX:t=SC:mod=	!	!	!LO:SIC:s=0f;	!	!
0DDl/	-(go)	-go.	0D]	.	.	0Al	.	-go.	0fl	-go.	-go.
==	==	==	==	==	==	==	==	==	==	==	==
*-	*-	*-	*-	*-	*-	*-	*-	*-	*-	*-	*-
!!!system-decoration: [(*)]
!!LO:MO:ori
!!!RDF**kern: l = terminal long
!!LO:MO:end
!!!filter-modern: shed -e "s/TX(.*):t=P:/tx$1:t=P:/LG" | shed -e "s/^custos:/Xcustos:/I" | sic -sq | modori -m | autostem -r | tie -s | humtr -p | shed -e "s/-//B"
!!!ENC: Mateusz Solarz
!!!END: 2022-04-27
!!!ENC: Katarzyna Serwa
!!!END: 2022-05-09
!!!ENC-modern: Andrzej Kubiczek
!!!END-modern: 2022-07-24
